64x64/apps/jd-gui.svg

<svg xmlns="http://www.w3.org/2000/svg" width="64" height="64" version="1">
 <path style="opacity:0.2" d="m 26.160157,21.007808 c -1.265269,0.0014 -2.494847,0.04896 -3.695311,0.1289 a 19.999995,7.999998 0 0 0 -0.683593,0.05078 c -0.726356,0.05772 -1.414918,0.14986 -2.109375,0.234374 A 19.999995,7.999998 0 0 0 6.0000065,29.0039 V 53.003894 A 19.999995,7.999998 0 0 0 19.886722,60.60936 c 0.527269,0.06186 1.048219,0.1292 1.593749,0.17578 a 19.999995,7.999998 0 0 0 0.914063,0.08204 C 23.611336,60.94976 24.86075,60.99822 26.144533,61 a 19.999995,7.999998 0 0 0 0.347656,-0.004 c 0.83873,-0.004 1.638838,-0.05076 2.445312,-0.08984 a 19.999995,7.999998 0 0 0 17.062496,-7.902266 v -2 h 1.488281 c 5.584211,0 10.511716,-4.47715 10.511716,-9.999997 0,-5.522847 -4.927505,-9.999998 -10.511716,-9.999998 H 45.999997 V 29.0039 A 19.999995,7.999998 0 0 0 29.105469,21.105464 c -0.901652,-0.04644 -1.799922,-0.09532 -2.742186,-0.09766 a 19.999995,7.999998 0 0 0 -0.203126,0 z m 19.83984,13.99609 h 1.640623 c 3.512791,0 6.359376,2.686292 6.359374,5.999999 2e-6,3.313707 -2.846583,5.999998 -6.359374,5.999998 h -1.640623 z"/>
 <path style="fill:#ecd09e" d="m 26.160157,20.003902 c -1.265269,0.0014 -2.494847,0.04896 -3.695311,0.1289 a 19.999995,7.999998 0 0 0 -0.683593,0.05078 c -0.726356,0.05772 -1.414918,0.14986 -2.109375,0.234374 A 19.999995,7.999998 0 0 0 6.0000065,27.999995 v 23.999994 a 19.999995,7.999998 0 0 0 13.8867155,7.605466 c 0.527269,0.06186 1.048219,0.1292 1.593749,0.17578 a 19.999995,7.999998 0 0 0 0.914063,0.08204 c 1.216802,0.08258 2.466216,0.13104 3.749999,0.13282 a 19.999995,7.999998 0 0 0 0.347656,-0.004 c 0.83873,-0.004 1.638838,-0.05076 2.445312,-0.08984 a 19.999995,7.999998 0 0 0 17.062496,-7.902266 v -2 h 1.488281 c 5.584211,0 10.511716,-4.477151 10.511716,-9.999997 0,-5.522847 -4.927505,-9.999998 -10.511716,-9.999998 H 45.999997 V 27.999995 A 19.999995,7.999998 0 0 0 29.105469,20.101558 c -0.901652,-0.04644 -1.799922,-0.09532 -2.742186,-0.09766 a 19.999995,7.999998 0 0 0 -0.203126,0 z m 19.83984,13.996091 h 1.640623 c 3.512791,0 6.359376,2.686291 6.359374,5.999999 2e-6,3.313707 -2.846583,5.999998 -6.359374,5.999998 h -1.640623 z"/>
 <ellipse style="opacity:0.2;fill:#f4f4f7" cx="26" cy="28" rx="20" ry="8"/>
 <ellipse style="fill:#c64e27" cx="26" cy="28" rx="14" ry="4"/>
 <path style="opacity:0.2;fill:#f4f4f7" d="M 26.160156 20.003906 C 24.894887 20.005306 23.665308 20.052872 22.464844 20.132812 A 19.999995 7.999998 0 0 0 21.78125 20.183594 C 21.054894 20.241314 20.366332 20.333455 19.671875 20.417969 A 19.999995 7.999998 0 0 0 6 28 L 6 29 A 19.999995 7.999998 0 0 1 19.671875 21.417969 C 20.366332 21.333455 21.054894 21.241314 21.78125 21.183594 A 19.999995 7.999998 0 0 1 22.464844 21.132812 C 23.665308 21.052872 24.894887 21.005306 26.160156 21.003906 A 19.999995 7.999998 0 0 1 26.363281 21.003906 C 27.305545 21.006246 28.203817 21.055122 29.105469 21.101562 A 19.999995 7.999998 0 0 1 46 29 L 46 28 A 19.999995 7.999998 0 0 0 29.105469 20.101562 C 28.203817 20.055122 27.305545 20.006246 26.363281 20.003906 A 19.999995 7.999998 0 0 0 26.160156 20.003906 z M 46 30 A 19.999995 7.999998 0 0 1 46 30.003906 L 46 31 L 47.488281 31 C 52.896969 31 57.674764 35.204029 57.970703 40.486328 C 57.980362 40.324056 58 40.164053 58 40 C 58 34.477153 53.072492 30 47.488281 30 L 46 30 z M 53.894531 41 C 53.388393 43.835864 50.790844 46 47.640625 46 L 46 46 L 46 47 L 47.640625 47 C 50.790844 47 53.388393 44.835864 53.894531 42 C 53.926136 42.176382 53.951453 42.35487 53.970703 42.535156 C 53.987046 42.359747 54 42.183321 54 42.003906 C 54 41.66056 53.953228 41.327584 53.894531 41 z"/>
 <path style="opacity:0.1" d="m 28.605185,5 c 2.604359,2.1337889 5.784965,4.345865 6.366187,7.489049 0.520995,2.817508 -6.230111,3.704416 -7.220529,7.129641 -0.434856,1.503894 2.888992,5.195809 2.468306,7.381305 H 23.673632 C 20.628846,24.748229 18.841526,20.554878 19.011075,17.507297 19.252933,13.159956 27.862273,13.171261 30.571313,10.068535 31.62741,8.8589622 28.605185,5 28.605185,5 Z"/>
 <path style="fill:#989898" d="m 28.605185,4.0000005 c 2.604359,2.1337889 5.784965,4.3458651 6.366187,7.4890485 0.520995,2.817509 -6.230111,3.704417 -7.220529,7.129643 -0.434856,1.503892 2.888992,5.195808 2.468306,7.381303 H 23.673632 C 20.628846,23.74823 18.841526,19.554878 19.011075,16.507297 19.252933,12.159956 27.862273,12.171261 30.571313,9.0685358 31.62741,7.8589627 28.605185,4.0000005 28.605185,4.0000005 Z"/>
 <path style="opacity:0.1" d="M 6.0664062,28.533203 A 19.999995,7.999998 0 0 0 6,29 19.999995,7.999998 0 0 0 26,37 19.999995,7.999998 0 0 0 46,29 19.999995,7.999998 0 0 0 45.939453,28.597656 19.999995,7.999998 0 0 1 26,36 19.999995,7.999998 0 0 1 6.0664062,28.533203 Z"/>
 <path style="opacity:0.1" d="M 12.125 27.496094 A 14 4 0 0 0 12 28 A 14 4 0 0 0 26 32 A 14 4 0 0 0 40 28 A 14 4 0 0 0 39.875 27.503906 A 14 4 0 0 1 26 31 A 14 4 0 0 1 12.125 27.496094 z"/>
</svg>

<svg xmlns="http://www.w3.org/2000/svg" width="64" height="64" version="1"><path style="opacity:.2" d="M26.16 21.008a56.443 56.443 0 0 0-3.695.129 20 8 0 0 0-.684.05c-.726.058-1.415.15-2.11.235A20 8 0 0 0 6 29.004v24a20 8 0 0 0 13.887 7.605c.527.062 1.048.13 1.593.176a20 8 0 0 0 .915.082c1.216.083 2.466.131 3.75.133a20 8 0 0 0 .347-.004c.839-.004 1.639-.05 2.446-.09A20 8 0 0 0 46 53.004v-2h1.488c5.584 0 10.512-4.477 10.512-10s-4.928-10-10.512-10H46v-2a20 8 0 0 0-16.895-7.899c-.901-.046-1.8-.095-2.742-.097a20 8 0 0 0-.203 0zM46 35.004h1.64c3.513 0 6.36 2.686 6.36 6s-2.847 6-6.36 6H46z"/><path style="fill:#ecd09e" d="M26.16 20.004a56.443 56.443 0 0 0-3.695.129 20 8 0 0 0-.684.05c-.726.058-1.415.15-2.11.235A20 8 0 0 0 6 28v24a20 8 0 0 0 13.887 7.605c.527.062 1.048.13 1.593.176a20 8 0 0 0 .915.082c1.216.083 2.466.131 3.75.133a20 8 0 0 0 .347-.004c.839-.004 1.639-.05 2.446-.09A20 8 0 0 0 46 52v-2h1.488C53.072 50 58 45.523 58 40s-4.928-10-10.512-10H46v-2a20 8 0 0 0-16.895-7.898c-.901-.047-1.8-.096-2.742-.098a20 8 0 0 0-.203 0zM46 34h1.64c3.513 0 6.36 2.686 6.36 6s-2.847 6-6.36 6H46z"/><ellipse style="opacity:.2;fill:#f4f4f7" cx="26" cy="28" rx="20" ry="8"/><ellipse style="fill:#c64e27" cx="26" cy="28" rx="14" ry="4"/><path style="opacity:.2;fill:#f4f4f7" d="M26.16 20.004a56.442 56.442 0 0 0-3.695.129 20 8 0 0 0-.684.05c-.726.058-1.415.15-2.11.235A20 8 0 0 0 6 28v1a20 8 0 0 1 13.672-7.582c.694-.085 1.383-.177 2.11-.234a20 8 0 0 1 .683-.051c1.2-.08 2.43-.128 3.695-.13a20 8 0 0 1 .203 0c.943.003 1.84.052 2.742.099A20 8 0 0 1 46 29v-1a20 8 0 0 0-16.895-7.898c-.901-.047-1.8-.096-2.742-.098a20 8 0 0 0-.203 0zM46 30a20 8 0 0 1 0 .004V31h1.488c5.409 0 10.187 4.204 10.483 9.486.01-.162.029-.322.029-.486 0-5.523-4.928-10-10.512-10H46zm7.895 11c-.507 2.836-3.104 5-6.254 5H46v1h1.64c3.15 0 5.748-2.164 6.255-5 .031.176.056.355.076.535.016-.175.029-.352.029-.531A5.67 5.67 0 0 0 53.895 41z"/><path style="opacity:.1" d="M28.605 5c2.605 2.134 5.785 4.346 6.366 7.489.521 2.818-6.23 3.704-7.22 7.13-.435 1.504 2.889 5.195 2.468 7.381h-6.545c-3.045-2.252-4.832-6.445-4.663-9.493.242-4.347 8.851-4.336 11.56-7.438C31.627 8.859 28.605 5 28.605 5z"/><path style="fill:#989898" d="M28.605 4c2.605 2.134 5.785 4.346 6.366 7.489.521 2.818-6.23 3.704-7.22 7.13-.435 1.504 2.889 5.196 2.468 7.381h-6.545c-3.045-2.252-4.832-6.445-4.663-9.493.242-4.347 8.851-4.336 11.56-7.438C31.627 7.859 28.605 4 28.605 4z"/><path style="opacity:.1" d="M6.066 28.533A20 8 0 0 0 6 29a20 8 0 0 0 20 8 20 8 0 0 0 20-8 20 8 0 0 0-.06-.402A20 8 0 0 1 26 36a20 8 0 0 1-19.934-7.467z"/><path style="opacity:.1" d="M12.125 27.496A14 4 0 0 0 12 28a14 4 0 0 0 14 4 14 4 0 0 0 14-4 14 4 0 0 0-.125-.496A14 4 0 0 1 26 31a14 4 0 0 1-13.875-3.504z"/></svg>
